src/vs/editor/contrib/suggest/media/Template_16x_vscode_inverse.svg

<svg viewBox="0 0 16 16" xmlns="http://www.w3.org/2000/svg"><path d="m16 16h-16v-16h16z" fill="#2d2d30" opacity="0"/><path d="m4 3h8v2h-1v-.5c0-.277-.224-.5-.5-.5h-1.5v7.5c0 .275.224.5.5.5h.5v1h-4v-1h.5a.5.5 0 0 0 .5-.5v-7.5h-1.5a.5.5 0 0 0 -.5.5v.5h-1zm-1 2.615-2.884 2.885 2.884 2.883.884-.883-2-2 2-2zm10 0-.884.885 2 2-2 2 .884.883 2.884-2.883z" fill="#c5c5c5"/></svg>

<svg xmlns="http://www.w3.org/2000/svg" viewBox="0 0 16 16"><style>.icon-canvas-transparent{opacity:0;fill:#2d2d30}.icon-vs-out{fill:#2d2d30}.icon-vs-bg{fill:#c5c5c5}</style><path class="icon-canvas-transparent" d="M16 16H0V0h16v16z" id="canvas"/><path class="icon-vs-out" d="M10.702 10.5l2-2-2-2 .5-.5H10v5h1v3H5v-3h1V6H4.798l.5.5-2 2 2 2L3 12.797l-3-3V7.201l3-3V2h10v2.201l3 3v2.596l-3 3-2.298-2.297z" id="outline" style="display: none;"/><path class="icon-vs-bg" d="M4 3h8v2h-1v-.5c0-.277-.224-.5-.5-.5H9v7.5c0 .275.224.5.5.5h.5v1H6v-1h.5a.5.5 0 0 0 .5-.5V4H5.5a.5.5 0 0 0-.5.5V5H4V3zM3 5.615L.116 8.5 3 11.383l.884-.883-2-2 2-2L3 5.615zm10 0l-.884.885 2 2-2 2 .884.883L15.884 8.5 13 5.615z" id="iconBg"/></svg>
